X: 71
P: No. LXXI.
M: 6/8
L: 1/8
K: G
V: 1
[|\
[BG][cA][dB] [d3B3] | [dB][cA][BG] [A2F2][AF] |\
[BG][cA][dB] [dB][ge][dB] | [cA][BG][AF] G3 |]
V: 2 clef=bass middle=d
[|\
g3 b3 | c'3 bd'b | g3 b3 | c'3 bd'b |\
g3 b3 | c'3 Hb3 | a3 g3 | ded BAG |
g3 gab | g3 fed | g3 b2g | d'2d g3 |\
g3 g3 | d3 d3 | g3 g3 | d'2d g3 |]

